X:618
T:
S:Ur den gamla notboken i Gotlands fornsal.
R:kadrilj
O:Gotland
M:6/8
L:1/8
K:F
c|cAc cAc|fed c z c|cAc cBA|AGG G2 c|
cAc cAc|f2 c a2 d|gab cde|fff f2::g|
g^fg g^fg|e2 c c=Bc|a^ga a^ga|a3 cde|
f2 f fed|c2 c cBA|G2 A BGE|GFF F2::f/g/|
a2 a bab|c' z c' a z c'|b z b g z g|c'3 a2 f/g/|
a2 a bab|c' z c' a z c'|b2 z b z g/e/|gff f2::e/f/|
g2 g g^fg|b3 gec|f2 c cBA|AGG G2 f/g/|
a2 a baa|c' z c' a z c'|b z b g z e|gff f2:|

